X: 05060
T: The MILLYARD REEL
C: Bob McQuillen 2 Oct'80
B: Bob's Note Book 5 #60
%R: reel
Z: 2021 John Chambers <jc:trillian.mit.edu>
M: C
L: 1/8
K: D
FG \
| ABAF D2de | fafe d2AA | B2gB A2fd | efed cBAG |\
| FGAF D2de | f2fe dAde | fagf egfe | e2dc d2 :|
|: fg \
| afdf dAdf | gfed cAFE | FAdf abaf | g2e2 e2ag |\
| fafd Adfa | gbge Begb | bafd Aceg | f2d2 d2 :|
%%begintext align
%% You really
%% must go to the Millyard Restaurant in
%% Manchester, N.H. I guarantee you'll get
%% the best steak you _ever_ had! Tell Gary
%% Edwards, the owner, that I sent you!
%%endtext

%%sep 1 1 500

%%sep 1 1 500

